Sweet-Rainbow/icons/kile.svg

<?xml version="1.0" encoding="UTF-8" standalone="no"?>
<!-- Generator: Gravit.io -->

<svg
   xmlns:dc="http://purl.org/dc/elements/1.1/"
   xmlns:cc="http://creativecommons.org/ns#"
   xmlns:rdf="http://www.w3.org/1999/02/22-rdf-syntax-ns#"
   xmlns:svg="http://www.w3.org/2000/svg"
   xmlns="http://www.w3.org/2000/svg"
   xmlns:sodipodi="http://sodipodi.sourceforge.net/DTD/sodipodi-0.dtd"
   xmlns:inkscape="http://www.inkscape.org/namespaces/inkscape"
   style="isolation:isolate"
   viewBox="0 0 36 36"
   width="48"
   height="48"
   version="1.1"
   id="svg9"
   sodipodi:docname="kile.svg"
   inkscape:version="0.92.4 (5da689c313, 2019-01-14)">
  <metadata
     id="metadata15">
    <rdf:RDF>
      <cc:Work
         rdf:about="">
        <dc:format>image/svg+xml</dc:format>
        <dc:type
           rdf:resource="http://purl.org/dc/dcmitype/StillImage" />
        <dc:title></dc:title>
      </cc:Work>
    </rdf:RDF>
  </metadata>
  <defs
     id="defs13" />
  <sodipodi:namedview
     pagecolor="#ffffff"
     bordercolor="#666666"
     borderopacity="1"
     objecttolerance="10"
     gridtolerance="10"
     guidetolerance="10"
     inkscape:pageopacity="0"
     inkscape:pageshadow="2"
     inkscape:window-width="640"
     inkscape:window-height="480"
     id="namedview11"
     showgrid="false"
     inkscape:zoom="29.365243"
     inkscape:cx="25.325443"
     inkscape:cy="32"
     inkscape:current-layer="svg9"
     units="px" />
  <linearGradient
     id="_lgradient_44"
     x1="0"
     y1="0.5"
     x2="1"
     y2="0.5"
     gradientTransform="matrix(44,0,0,44,2,2)"
     gradientUnits="userSpaceOnUse">
    <stop
       offset="0%"
       stop-opacity="1"
       style="stop-color:rgb(178,254,250)"
       id="stop2" />
    <stop
       offset="98.26086956521739%"
       stop-opacity="1"
       style="stop-color:rgb(14,210,247)"
       id="stop4" />
  </linearGradient>
  <g
     id="g826"
     transform="matrix(0.81818182,0,0,0.81818182,-1.6362545,-1.6363637)">
    <path
       id="path7"
       d="M 10.893,32.613 V 15.387 H 15.5 v 7.825 l 5.4,-7.825 h 5.423 l -6.31,8.401 6.858,8.825 H 21.063 L 15.5,24.882 v 7.731 z m 18.391,0 c -0.31,0 -0.574,-0.099 -0.792,-0.297 -0.218,-0.202 -0.326,-0.444 -0.326,-0.725 0,-0.293 0.107,-0.536 0.321,-0.731 0.214,-0.198 0.48,-0.297 0.797,-0.297 0.317,0 0.587,0.101 0.809,0.302 0.221,0.199 0.332,0.44 0.332,0.726 0,0.278 -0.112,0.518 -0.338,0.72 -0.226,0.201 -0.493,0.302 -0.803,0.302 z m 7.6,-0.094 h -5.793 v -1.862 h 5.793 z m 0,-3.339 h -8.891 v -1.862 h 8.891 z m -3.642,-6.897 c -0.329,0.035 -0.593,0.15 -0.792,0.345 -0.199,0.191 -0.298,0.427 -0.298,0.709 0,0.303 0.092,0.544 0.275,0.725 0.18,0.178 0.451,0.296 0.815,0.355 z m 8.757,0.377 v 0 c 0.083,1.098 1.046,1.925 2.148,1.845 v 0 c 1.102,-0.08 1.93,-1.041 1.847,-2.145 v 0 C 45.584,16.83 43.091,11.65 39.016,7.87 34.941,4.1 29.584,2 24.027,2 18.19,2 12.583,4.32 8.448,8.44 4.323,12.57 2,18.17 2,24 2,29.83 4.323,35.43 8.448,39.56 12.583,43.68 18.19,46 24.027,46 v 0 c 1.105,0 2.003,-0.896 2.003,-2 v 0 c 0,-1.104 -0.898,-2 -2.003,-2 v 0 C 19.251,42 14.666,40.1 11.281,36.73 7.907,33.35 6.005,28.77 6.005,24 6.005,19.23 7.907,14.65 11.281,11.27 14.666,7.9 19.251,6 24.027,6 c 4.546,0 8.931,1.71 12.265,4.8 3.334,3.09 5.367,7.33 5.707,11.86 z m -7.605,-2.208 v 4.007 c 0.448,-0.004 0.794,-0.108 1.038,-0.313 0.241,-0.205 0.362,-0.496 0.362,-0.871 0,-0.282 -0.058,-0.519 -0.172,-0.71 -0.119,-0.195 -0.024,-0.343 -0.253,-0.443 l 0.35,-1.399 c 0.444,0.167 0.786,0.463 1.027,0.887 0.241,0.425 0.361,0.945 0.361,1.56 0,0.918 -0.279,1.656 -0.837,2.212 -0.562,0.553 -1.302,0.83 -2.22,0.83 -0.902,0 -1.652,-0.277 -2.248,-0.83 -0.597,-0.556 -0.895,-1.259 -0.895,-2.107 0,-0.873 0.302,-1.562 0.906,-2.066 0.604,-0.505 1.432,-0.757 2.484,-0.757 z M 32.408,39.94 v 0 c -0.979,0.513 -1.355,1.723 -0.842,2.7 v 0 c 0.514,0.977 1.726,1.353 2.704,0.84 v 0 c 4.165,-2.19 7.529,-5.66 9.582,-9.89 v 0 c 0.486,-0.993 0.073,-2.192 -0.922,-2.675 v 0 c -0.994,-0.483 -2.197,-0.068 -2.683,0.925 v 0 c -1.682,3.47 -4.425,6.3 -7.839,8.1 z"
       style="fill:url(#_lgradient_44);fill-rule:evenodd"
       inkscape:connector-curvature="0" />
  </g>
</svg>

<?xml version="1.0" encoding="UTF-8" standalone="no"?><!-- Generator: Gravit.io --><svg xmlns="http://www.w3.org/2000/svg" xmlns:xlink="http://www.w3.org/1999/xlink" style="isolation:isolate" viewBox="0 0 48 48" width="48pt" height="48pt"><linearGradient id="_lgradient_44" x1="0" y1="0.5" x2="1" y2="0.5" gradientTransform="matrix(44,0,0,44,2,2)" gradientUnits="userSpaceOnUse"><stop offset="0%" stop-opacity="1" style="stop-color:rgb(178,254,250)"/><stop offset="98.26086956521739%" stop-opacity="1" style="stop-color:rgb(14,210,247)"/></linearGradient><path d=" M 10.893 32.613 L 10.893 15.387 L 15.5 15.387 L 15.5 23.212 L 20.9 15.387 L 26.323 15.387 L 20.013 23.788 L 26.871 32.613 L 21.063 32.613 L 15.5 24.882 L 15.5 32.613 L 10.893 32.613 L 10.893 32.613 L 10.893 32.613 Z  M 29.284 32.613 C 28.974 32.613 28.71 32.514 28.492 32.316 C 28.274 32.114 28.166 31.872 28.166 31.591 C 28.166 31.298 28.273 31.055 28.487 30.86 C 28.701 30.662 28.967 30.563 29.284 30.563 C 29.601 30.563 29.871 30.664 30.093 30.865 C 30.314 31.064 30.425 31.305 30.425 31.591 C 30.425 31.869 30.313 32.109 30.087 32.311 C 29.861 32.512 29.594 32.613 29.284 32.613 L 29.284 32.613 L 29.284 32.613 L 29.284 32.613 Z  M 36.884 32.519 L 31.091 32.519 L 31.091 30.657 L 36.884 30.657 L 36.884 32.519 L 36.884 32.519 L 36.884 32.519 L 36.884 32.519 Z  M 36.884 29.18 L 27.993 29.18 L 27.993 27.318 L 36.884 27.318 L 36.884 29.18 L 36.884 29.18 L 36.884 29.18 L 36.884 29.18 Z  M 33.242 22.283 C 32.913 22.318 32.649 22.433 32.45 22.628 C 32.251 22.819 32.152 23.055 32.152 23.337 C 32.152 23.64 32.244 23.881 32.427 24.062 C 32.607 24.24 32.878 24.358 33.242 24.417 L 33.242 22.283 L 33.242 22.283 L 33.242 22.283 L 33.242 22.283 Z  M 41.999 22.66 L 41.999 22.66 C 42.082 23.758 43.045 24.585 44.147 24.505 L 44.147 24.505 C 45.249 24.425 46.077 23.464 45.994 22.36 L 45.994 22.36 C 45.584 16.83 43.091 11.65 39.016 7.87 C 34.941 4.1 29.584 2 24.027 2 C 18.19 2 12.583 4.32 8.448 8.44 C 4.323 12.57 2 18.17 2 24 C 2 29.83 4.323 35.43 8.448 39.56 C 12.583 43.68 18.19 46 24.027 46 L 24.027 46 C 25.132 46 26.03 45.104 26.03 44 L 26.03 44 C 26.03 42.896 25.132 42 24.027 42 L 24.027 42 C 19.251 42 14.666 40.1 11.281 36.73 C 7.907 33.35 6.005 28.77 6.005 24 C 6.005 19.23 7.907 14.65 11.281 11.27 C 14.666 7.9 19.251 6 24.027 6 C 28.573 6 32.958 7.71 36.292 10.8 C 39.626 13.89 41.659 18.13 41.999 22.66 L 41.999 22.66 Z  M 34.394 20.452 L 34.394 24.459 C 34.842 24.455 35.188 24.351 35.432 24.146 C 35.673 23.941 35.794 23.65 35.794 23.275 C 35.794 22.993 35.736 22.756 35.622 22.565 C 35.503 22.37 35.598 22.222 35.369 22.122 L 35.719 20.723 C 36.163 20.89 36.505 21.186 36.746 21.61 C 36.987 22.035 37.107 22.555 37.107 23.17 C 37.107 24.088 36.828 24.826 36.27 25.382 C 35.708 25.935 34.968 26.212 34.05 26.212 C 33.148 26.212 32.398 25.935 31.802 25.382 C 31.205 24.826 30.907 24.123 30.907 23.275 C 30.907 22.402 31.209 21.713 31.813 21.209 C 32.417 20.704 33.245 20.452 34.297 20.452 L 34.394 20.452 L 34.394 20.452 L 34.394 20.452 L 34.394 20.452 Z  M 32.408 39.94 L 32.408 39.94 C 31.429 40.453 31.053 41.663 31.566 42.64 L 31.566 42.64 C 32.08 43.617 33.292 43.993 34.27 43.48 L 34.27 43.48 C 38.435 41.29 41.799 37.82 43.852 33.59 L 43.852 33.59 C 44.338 32.597 43.925 31.398 42.93 30.915 L 42.93 30.915 C 41.936 30.432 40.733 30.847 40.247 31.84 L 40.247 31.84 C 38.565 35.31 35.822 38.14 32.408 39.94 Z " fill-rule="evenodd" fill="url(#_lgradient_44)"/></svg>
